app/images/icon-device-phone.svg

<svg xmlns="http://www.w3.org/2000/svg" width="32" height="32" viewBox="0 0 32 32"><style>path,rect{fill:#505050}#screen{fill-opacity:.1}#icon{fill-opacity:.6}</style><path id="body" d="M22 31H10c-1.1 0-2-.9-2-2V3c0-1.1.9-2 2-2h12c1.1 0 2 .9 2 2v26c0 1.1-.9 2-2 2zm-4-1c.3 0 .5-.2.5-.5s-.2-.5-.5-.5-.5.2-.5.5.2.5.5.5zm-2 0c.3 0 .5-.2.5-.5s-.2-.5-.5-.5-.5.2-.5.5.2.5.5.5zm-2 0c.3 0 .5-.2.5-.5s-.2-.5-.5-.5-.5.2-.5.5.2.5.5.5zm4.5-28h-5c-.3 0-.5.2-.5.5s.2.5.5.5h5c.3 0 .5-.2.5-.5s-.2-.5-.5-.5zM23 5H9v22h14V5z"/><path id="screen" class="cls-2" d="M9 5h14v22H9z"/></svg>

<?xml version="1.0"?>
<!-- This Source Code Form is subject to the terms of the Mozilla Public
   - License, v. 2.0. If a copy of the MPL was not distributed with this
   - file, You can obtain one at http://mozilla.org/MPL/2.0/. -->
<svg xmlns="http://www.w3.org/2000/svg" xmlns:xlink="http://www.w3.org/1999/xlink" width="32" height="32" viewBox="0 0 32 32">
  <style>
    path, rect {
      fill: #505050;
    }

    #screen {
      fill-opacity: .1;
    }

    #icon {
      fill-opacity: .6;
    }
  </style>

  <path id="body" d="M22,31H10c-1.1,0-2-0.9-2-2V3c0-1.1,0.9-2,2-2h12c1.1,0,2,0.9,2,2v26C24,30.1,23.1,31,22,31z M18,30 c0.3,0,0.5-0.2,0.5-0.5S18.3,29,18,29s-0.5,0.2-0.5,0.5S17.7,30,18,30z M16,30c0.3,0,0.5-0.2,0.5-0.5S16.3,29,16,29 s-0.5,0.2-0.5,0.5S15.7,30,16,30z M14,30c0.3,0,0.5-0.2,0.5-0.5S14.3,29,14,29s-0.5,0.2-0.5,0.5S13.7,30,14,30z M18.5,2h-5 C13.2,2,13,2.2,13,2.5S13.2,3,13.5,3h5C18.8,3,19,2.8,19,2.5S18.8,2,18.5,2z M23,5H9v22h14V5z"/>
  <rect id="screen" class="cls-2" x="9" y="5" width="14" height="22"/>

</svg>
